src/assets/icons/logout.svg

<svg viewBox="0 0 24 24" fill="none" xmlns="http://www.w3.org/2000/svg" stroke="#52b788"><g id="SVGRepo_bgCarrier" stroke-width="0"></g><g id="SVGRepo_tracerCarrier" stroke-linecap="round" stroke-linejoin="round"></g><g id="SVGRepo_iconCarrier"> <path d="M9.00195 7C9.01406 4.82497 9.11051 3.64706 9.87889 2.87868C10.7576 2 12.1718 2 15.0002 2L16.0002 2C18.8286 2 20.2429 2 21.1215 2.87868C22.0002 3.75736 22.0002 5.17157 22.0002 8L22.0002 16C22.0002 18.8284 22.0002 20.2426 21.1215 21.1213C20.2429 22 18.8286 22 16.0002 22H15.0002C12.1718 22 10.7576 22 9.87889 21.1213C9.11051 20.3529 9.01406 19.175 9.00195 17" stroke="#52b788" stroke-width="1.5" stroke-linecap="round"></path> <path d="M15 12L2 12M2 12L5.5 9M2 12L5.5 15" stroke="#52b788" stroke-width="1.5" stroke-linecap="round" stroke-linejoin="round"></path> </g></svg>

<svg viewBox="0 0 24 24" fill="none" xmlns="http://www.w3.org/2000/svg" stroke="#52b788">
  <g stroke-width="0"/>
  <g stroke-linecap="round" stroke-linejoin="round"/>
  <g stroke-width="1.5" stroke-linecap="round">
    <path d="M9.002 7c.012-2.175.109-3.353.877-4.121C10.758 2 12.172 2 15 2h1c2.829 0 4.243 0 5.122.879C22 3.757 22 5.172 22 8v8c0 2.828 0 4.243-.878 5.121C20.242 22 18.829 22 16 22h-1c-2.828 0-4.242 0-5.121-.879-.768-.768-.865-1.946-.877-4.121"/>
    <path d="M15 12H2m0 0 3.5-3M2 12l3.5 3" stroke-linejoin="round"/>
  </g>
</svg>
